icons/modern/rugby-football.svg

<svg width="32" height="32" viewBox="0 0 32 32" fill="none" xmlns="http://www.w3.org/2000/svg">
<g filter="url(#filter0_i_18_2315)">
<path d="M29.179 5.86912C33.769 20.2091 20.229 33.7391 5.88897 29.1591C4.51897 28.7191 3.44897 27.6491 3.00897 26.2791C-1.58103 11.9291 11.959 -1.60088 26.299 2.98912C27.669 3.42912 28.739 4.49912 29.179 5.86912Z" fill="url(#paint0_radial_18_2315)"/>
<path d="M29.179 5.86912C33.769 20.2091 20.229 33.7391 5.88897 29.1591C4.51897 28.7191 3.44897 27.6491 3.00897 26.2791C-1.58103 11.9291 11.959 -1.60088 26.299 2.98912C27.669 3.42912 28.739 4.49912 29.179 5.86912Z" fill="url(#paint1_radial_18_2315)"/>
</g>
<g filter="url(#filter1_i_18_2315)">
<path d="M27.3314 3.63085C27.4515 3.51058 27.6415 3.49287 27.7751 3.59783C28.0015 3.77556 28.2117 3.9715 28.3997 4.1877C28.5135 4.31863 28.4983 4.5138 28.3757 4.63661L22.205 10.8204C23.8753 12.9877 23.7166 16.1007 21.729 18.0791L18.439 21.3691C16.4558 23.3523 13.3514 23.5146 11.1924 21.8561L4.69306 28.3692C4.56877 28.4937 4.37031 28.5077 4.23823 28.3915C4.02119 28.2005 3.8246 27.9912 3.64637 27.7613C3.54328 27.6284 3.56178 27.4407 3.68061 27.3217L10.1633 20.8281C8.49278 18.6607 8.65135 15.5476 10.639 13.5691L13.929 10.2791C15.9043 8.29466 19.0106 8.13337 21.1774 9.79524L27.3314 3.63085Z" fill="url(#paint2_linear_18_2315)"/>
<path d="M27.3314 3.63085C27.4515 3.51058 27.6415 3.49287 27.7751 3.59783C28.0015 3.77556 28.2117 3.9715 28.3997 4.1877C28.5135 4.31863 28.4983 4.5138 28.3757 4.63661L22.205 10.8204C23.8753 12.9877 23.7166 16.1007 21.729 18.0791L18.439 21.3691C16.4558 23.3523 13.3514 23.5146 11.1924 21.8561L4.69306 28.3692C4.56877 28.4937 4.37031 28.5077 4.23823 28.3915C4.02119 28.2005 3.8246 27.9912 3.64637 27.7613C3.54328 27.6284 3.56178 27.4407 3.68061 27.3217L10.1633 20.8281C8.49278 18.6607 8.65135 15.5476 10.639 13.5691L13.929 10.2791C15.9043 8.29466 19.0106 8.13337 21.1774 9.79524L27.3314 3.63085Z" fill="url(#paint3_linear_18_2315)"/>
</g>
<g filter="url(#filter2_f_18_2315)">
<path d="M12.2705 17.8002L14.2705 19.8002C14.6105 20.1402 14.6105 20.6902 14.2705 21.0202C13.9305 21.3602 13.3805 21.3602 13.0505 21.0202L11.0505 19.0202C10.7105 18.6802 10.7105 18.1302 11.0505 17.8002C11.3905 17.4702 11.9405 17.4702 12.2705 17.8002Z" fill="#F95C5C"/>
</g>
<g filter="url(#filter3_f_18_2315)">
<path d="M14.6505 15.4302L16.6505 17.4302C16.9905 17.7702 16.9905 18.3202 16.6505 18.6502C16.3105 18.9902 15.7605 18.9902 15.4305 18.6502L13.4305 16.6502C13.0905 16.3102 13.0905 15.7602 13.4305 15.4302C13.7605 15.0902 14.3105 15.0902 14.6505 15.4302Z" fill="#F95C5C"/>
</g>
<g filter="url(#filter4_f_18_2315)">
<path d="M17.0205 13.0502L19.0205 15.0502C19.3605 15.3902 19.3605 15.9402 19.0205 16.2702C18.6805 16.6102 18.1305 16.6102 17.8005 16.2702L15.8005 14.2702C15.4605 13.9302 15.4605 13.3802 15.8005 13.0502C16.1405 12.7202 16.6805 12.7202 17.0205 13.0502Z" fill="#F95C5C"/>
</g>
<g filter="url(#filter5_f_18_2315)">
<path d="M19.4005 10.6802L21.4005 12.6802C21.7405 13.0202 21.7405 13.5702 21.4005 13.9002C21.0605 14.2402 20.5105 14.2402 20.1805 13.9002L18.1805 11.9002C17.8405 11.5602 17.8405 11.0102 18.1805 10.6802C18.5105 10.3402 19.0605 10.3402 19.4005 10.6802Z" fill="#F95C5C"/>
</g>
<g filter="url(#filter6_ii_18_2315)">
<path d="M12.339 17.6991L14.339 19.6991C14.679 20.0391 14.679 20.5891 14.339 20.9191C13.999 21.2591 13.449 21.2591 13.119 20.9191L11.119 18.9191C10.779 18.5791 10.779 18.0291 11.119 17.6991C11.459 17.3691 12.009 17.3691 12.339 17.6991Z" fill="#FFBCD4"/>
</g>
<g filter="url(#filter7_ii_18_2315)">
<path d="M14.719 15.3291L16.719 17.3291C17.059 17.6691 17.059 18.2191 16.719 18.5491C16.379 18.8891 15.829 18.8891 15.499 18.5491L13.499 16.5491C13.159 16.2091 13.159 15.6591 13.499 15.3291C13.829 14.9891 14.379 14.9891 14.719 15.3291Z" fill="#FFBCD4"/>
</g>
<g filter="url(#filter8_ii_18_2315)">
<path d="M17.089 12.9491L19.089 14.9491C19.429 15.2891 19.429 15.8391 19.089 16.1691C18.749 16.5091 18.199 16.5091 17.869 16.1691L15.869 14.1691C15.529 13.8291 15.529 13.2791 15.869 12.9491C16.209 12.6191 16.749 12.6191 17.089 12.9491Z" fill="#FFBCD4"/>
</g>
<g filter="url(#filter9_ii_18_2315)">
<path d="M19.469 10.5791L21.469 12.5791C21.809 12.9191 21.809 13.4691 21.469 13.7991C21.129 14.1391 20.579 14.1391 20.249 13.7991L18.249 11.7991C17.909 11.4591 17.909 10.9091 18.249 10.5791C18.579 10.2391 19.129 10.2391 19.469 10.5791Z" fill="#FFBCD4"/>
</g>
<defs>
<filter id="filter0_i_18_2315" x="2.09863" y="2.07831" width="28.2407" height="28.2381" filterUnits="userSpaceOnUse" color-interpolation-filters="sRGB">
<feFlood flood-opacity="0" result="BackgroundImageFix"/>
<feBlend mode="normal" in="SourceGraphic" in2="BackgroundImageFix" result="shape"/>
<feColorMatrix in="SourceAlpha" type="matrix" values="0 0 0 0 0 0 0 0 0 0 0 0 0 0 0 0 0 0 127 0" result="hardAlpha"/>
<feOffset dx="0.25" dy="0.25"/>
<feGaussianBlur stdDeviation="0.625"/>
<feComposite in2="hardAlpha" operator="arithmetic" k2="-1" k3="1"/>
<feColorMatrix type="matrix" values="0 0 0 0 0.843137 0 0 0 0 0.607843 0 0 0 0 0.313726 0 0 0 1 0"/>
<feBlend mode="normal" in2="shape" result="effect1_innerShadow_18_2315"/>
</filter>
<filter id="filter1_i_18_2315" x="3.5791" y="3.52881" width="24.8979" height="25.1923" filterUnits="userSpaceOnUse" color-interpolation-filters="sRGB">
<feFlood flood-opacity="0" result="BackgroundImageFix"/>
<feBlend mode="normal" in="SourceGraphic" in2="BackgroundImageFix" result="shape"/>
<feColorMatrix in="SourceAlpha" type="matrix" values="0 0 0 0 0 0 0 0 0 0 0 0 0 0 0 0 0 0 127 0" result="hardAlpha"/>
<feOffset dy="0.25"/>
<feGaussianBlur stdDeviation="0.2"/>
<feComposite in2="hardAlpha" operator="arithmetic" k2="-1" k3="1"/>
<feColorMatrix type="matrix" values="0 0 0 0 0.996078 0 0 0 0 0.458824 0 0 0 0 0.180392 0 0 0 1 0"/>
<feBlend mode="normal" in2="shape" result="effect1_innerShadow_18_2315"/>
</filter>
<filter id="filter2_f_18_2315" x="10.5455" y="17.3027" width="4.22998" height="4.22247" filterUnits="userSpaceOnUse" color-interpolation-filters="sRGB">
<feFlood flood-opacity="0" result="BackgroundImageFix"/>
<feBlend mode="normal" in="SourceGraphic" in2="BackgroundImageFix" result="shape"/>
<feGaussianBlur stdDeviation="0.125" result="effect1_foregroundBlur_18_2315"/>
</filter>
<filter id="filter3_f_18_2315" x="12.9255" y="14.9252" width="4.22998" height="4.22998" filterUnits="userSpaceOnUse" color-interpolation-filters="sRGB">
<feFlood flood-opacity="0" result="BackgroundImageFix"/>
<feBlend mode="normal" in="SourceGraphic" in2="BackgroundImageFix" result="shape"/>
<feGaussianBlur stdDeviation="0.125" result="effect1_foregroundBlur_18_2315"/>
</filter>
<filter id="filter4_f_18_2315" x="15.2955" y="12.5527" width="4.22998" height="4.22247" filterUnits="userSpaceOnUse" color-interpolation-filters="sRGB">
<feFlood flood-opacity="0" result="BackgroundImageFix"/>
<feBlend mode="normal" in="SourceGraphic" in2="BackgroundImageFix" result="shape"/>
<feGaussianBlur stdDeviation="0.125" result="effect1_foregroundBlur_18_2315"/>
</filter>
<filter id="filter5_f_18_2315" x="17.6755" y="10.1752" width="4.22998" height="4.22998" filterUnits="userSpaceOnUse" color-interpolation-filters="sRGB">
<feFlood flood-opacity="0" result="BackgroundImageFix"/>
<feBlend mode="normal" in="SourceGraphic" in2="BackgroundImageFix" result="shape"/>
<feGaussianBlur stdDeviation="0.125" result="effect1_foregroundBlur_18_2315"/>
</filter>
<filter id="filter6_ii_18_2315" x="10.664" y="17.2516" width="4.12998" height="4.12247" filterUnits="userSpaceOnUse" color-interpolation-filters="sRGB">
<feFlood flood-opacity="0" result="BackgroundImageFix"/>
<feBlend mode="normal" in="SourceGraphic" in2="BackgroundImageFix" result="shape"/>
<feColorMatrix in="SourceAlpha" type="matrix" values="0 0 0 0 0 0 0 0 0 0 0 0 0 0 0 0 0 0 127 0" result="hardAlpha"/>
<feOffset dx="-0.2" dy="0.2"/>
<feGaussianBlur stdDeviation="0.2"/>
<feComposite in2="hardAlpha" operator="arithmetic" k2="-1" k3="1"/>
<feColorMatrix type="matrix" values="0 0 0 0 1 0 0 0 0 0.815686 0 0 0 0 0.831373 0 0 0 1 0"/>
<feBlend mode="normal" in2="shape" result="effect1_innerShadow_18_2315"/>
<feColorMatrix in="SourceAlpha" type="matrix" values="0 0 0 0 0 0 0 0 0 0 0 0 0 0 0 0 0 0 127 0" result="hardAlpha"/>
<feOffset dx="0.2" dy="-0.2"/>
<feGaussianBlur stdDeviation="0.2"/>
<feComposite in2="hardAlpha" operator="arithmetic" k2="-1" k3="1"/>
<feColorMatrix type="matrix" values="0 0 0 0 0.952941 0 0 0 0 0.45098 0 0 0 0 0.678431 0 0 0 1 0"/>
<feBlend mode="normal" in2="effect1_innerShadow_18_2315" result="effect2_innerShadow_18_2315"/>
</filter>
<filter id="filter7_ii_18_2315" x="13.044" y="14.8741" width="4.12998" height="4.12998" filterUnits="userSpaceOnUse" color-interpolation-filters="sRGB">
<feFlood flood-opacity="0" result="BackgroundImageFix"/>
<feBlend mode="normal" in="SourceGraphic" in2="BackgroundImageFix" result="shape"/>
<feColorMatrix in="SourceAlpha" type="matrix" values="0 0 0 0 0 0 0 0 0 0 0 0 0 0 0 0 0 0 127 0" result="hardAlpha"/>
<feOffset dx="-0.2" dy="0.2"/>
<feGaussianBlur stdDeviation="0.2"/>
<feComposite in2="hardAlpha" operator="arithmetic" k2="-1" k3="1"/>
<feColorMatrix type="matrix" values="0 0 0 0 1 0 0 0 0 0.815686 0 0 0 0 0.831373 0 0 0 1 0"/>
<feBlend mode="normal" in2="shape" result="effect1_innerShadow_18_2315"/>
<feColorMatrix in="SourceAlpha" type="matrix" values="0 0 0 0 0 0 0 0 0 0 0 0 0 0 0 0 0 0 127 0" result="hardAlpha"/>
<feOffset dx="0.2" dy="-0.2"/>
<feGaussianBlur stdDeviation="0.2"/>
<feComposite in2="hardAlpha" operator="arithmetic" k2="-1" k3="1"/>
<feColorMatrix type="matrix" values="0 0 0 0 0.952941 0 0 0 0 0.45098 0 0 0 0 0.678431 0 0 0 1 0"/>
<feBlend mode="normal" in2="effect1_innerShadow_18_2315" result="effect2_innerShadow_18_2315"/>
</filter>
<filter id="filter8_ii_18_2315" x="15.414" y="12.5016" width="4.12998" height="4.12247" filterUnits="userSpaceOnUse" color-interpolation-filters="sRGB">
<feFlood flood-opacity="0" result="BackgroundImageFix"/>
<feBlend mode="normal" in="SourceGraphic" in2="BackgroundImageFix" result="shape"/>
<feColorMatrix in="SourceAlpha" type="matrix" values="0 0 0 0 0 0 0 0 0 0 0 0 0 0 0 0 0 0 127 0" result="hardAlpha"/>
<feOffset dx="-0.2" dy="0.2"/>
<feGaussianBlur stdDeviation="0.2"/>
<feComposite in2="hardAlpha" operator="arithmetic" k2="-1" k3="1"/>
<feColorMatrix type="matrix" values="0 0 0 0 1 0 0 0 0 0.815686 0 0 0 0 0.831373 0 0 0 1 0"/>
<feBlend mode="normal" in2="shape" result="effect1_innerShadow_18_2315"/>
<feColorMatrix in="SourceAlpha" type="matrix" values="0 0 0 0 0 0 0 0 0 0 0 0 0 0 0 0 0 0 127 0" result="hardAlpha"/>
<feOffset dx="0.2" dy="-0.2"/>
<feGaussianBlur stdDeviation="0.2"/>
<feComposite in2="hardAlpha" operator="arithmetic" k2="-1" k3="1"/>
<feColorMatrix type="matrix" values="0 0 0 0 0.952941 0 0 0 0 0.45098 0 0 0 0 0.678431 0 0 0 1 0"/>
<feBlend mode="normal" in2="effect1_innerShadow_18_2315" result="effect2_innerShadow_18_2315"/>
</filter>
<filter id="filter9_ii_18_2315" x="17.794" y="10.1241" width="4.12998" height="4.12998" filterUnits="userSpaceOnUse" color-interpolation-filters="sRGB">
<feFlood flood-opacity="0" result="BackgroundImageFix"/>
<feBlend mode="normal" in="SourceGraphic" in2="BackgroundImageFix" result="shape"/>
<feColorMatrix in="SourceAlpha" type="matrix" values="0 0 0 0 0 0 0 0 0 0 0 0 0 0 0 0 0 0 127 0" result="hardAlpha"/>
<feOffset dx="-0.2" dy="0.2"/>
<feGaussianBlur stdDeviation="0.2"/>
<feComposite in2="hardAlpha" operator="arithmetic" k2="-1" k3="1"/>
<feColorMatrix type="matrix" values="0 0 0 0 1 0 0 0 0 0.815686 0 0 0 0 0.831373 0 0 0 1 0"/>
<feBlend mode="normal" in2="shape" result="effect1_innerShadow_18_2315"/>
<feColorMatrix in="SourceAlpha" type="matrix" values="0 0 0 0 0 0 0 0 0 0 0 0 0 0 0 0 0 0 127 0" result="hardAlpha"/>
<feOffset dx="0.2" dy="-0.2"/>
<feGaussianBlur stdDeviation="0.2"/>
<feComposite in2="hardAlpha" operator="arithmetic" k2="-1" k3="1"/>
<feColorMatrix type="matrix" values="0 0 0 0 0.952941 0 0 0 0 0.45098 0 0 0 0 0.678431 0 0 0 1 0"/>
<feBlend mode="normal" in2="effect1_innerShadow_18_2315" result="effect2_innerShadow_18_2315"/>
</filter>
<radialGradient id="paint0_radial_18_2315" cx="0" cy="0" r="1" gradientUnits="userSpaceOnUse" gradientTransform="translate(26.2713 7.96723) rotate(135.69) scale(28.9845 19.3945)">
<stop stop-color="#FFD96B"/>
<stop offset="0.625776" stop-color="#F3AA36"/>
<stop offset="1" stop-color="#E4843C"/>
</radialGradient>
<radialGradient id="paint1_radial_18_2315" cx="0" cy="0" r="1" gradientUnits="userSpaceOnUse" gradientTransform="translate(12.6418 10.3376) rotate(82.681) scale(21.7075 28.0816)">
<stop offset="0.758017" stop-color="#F47490" stop-opacity="0"/>
<stop offset="1" stop-color="#F47490"/>
</radialGradient>
<linearGradient id="paint2_linear_18_2315" x1="27.25" y1="5.29272" x2="4.23452" y2="28.4711" gradientUnits="userSpaceOnUse">
<stop stop-color="#FF8D58"/>
<stop offset="1" stop-color="#FF5941"/>
</linearGradient>
<linearGradient id="paint3_linear_18_2315" x1="4.70925" y1="27.9846" x2="13.2193" y2="21.8148" gradientUnits="userSpaceOnUse">
<stop stop-color="#F04A54"/>
<stop offset="1" stop-color="#F04A54" stop-opacity="0"/>
</linearGradient>
</defs>
</svg>

<svg width="32" height="32" fill="none" xmlns="http://www.w3.org/2000/svg"><g filter="url(#a)"><path d="M29.179 5.87c4.59 14.34-8.95 27.87-23.29 23.29a4.45 4.45 0 0 1-2.88-2.88c-4.59-14.35 8.95-27.88 23.29-23.29a4.45 4.45 0 0 1 2.88 2.88Z" fill="url(#b)"/><path d="M29.179 5.87c4.59 14.34-8.95 27.87-23.29 23.29a4.45 4.45 0 0 1-2.88-2.88c-4.59-14.35 8.95-27.88 23.29-23.29a4.45 4.45 0 0 1 2.88 2.88Z" fill="url(#c)"/></g><g filter="url(#d)"><path d="M27.331 3.63c.12-.12.31-.137.444-.032.227.178.437.373.625.59a.33.33 0 0 1-.024.449l-6.171 6.183a5.503 5.503 0 0 1-.476 7.26l-3.29 3.29a5.507 5.507 0 0 1-7.247.486L4.693 28.37a.332.332 0 0 1-.455.023 4.547 4.547 0 0 1-.592-.63.333.333 0 0 1 .035-.44l6.482-6.494a5.503 5.503 0 0 1 .476-7.259l3.29-3.29a5.503 5.503 0 0 1 7.248-.484l6.154-6.164Z" fill="url(#e)"/><path d="M27.331 3.63c.12-.12.31-.137.444-.032.227.178.437.373.625.59a.33.33 0 0 1-.024.449l-6.171 6.183a5.503 5.503 0 0 1-.476 7.26l-3.29 3.29a5.507 5.507 0 0 1-7.247.486L4.693 28.37a.332.332 0 0 1-.455.023 4.547 4.547 0 0 1-.592-.63.333.333 0 0 1 .035-.44l6.482-6.494a5.503 5.503 0 0 1 .476-7.259l3.29-3.29a5.503 5.503 0 0 1 7.248-.484l6.154-6.164Z" fill="url(#f)"/></g><g filter="url(#g)"><path d="m12.27 17.8 2 2c.34.34.34.89 0 1.22-.34.34-.89.34-1.22 0l-2-2a.857.857 0 0 1 0-1.22c.34-.33.89-.33 1.22 0Z" fill="#F95C5C"/></g><g filter="url(#h)"><path d="m14.65 15.43 2 2c.34.34.34.89 0 1.22-.34.34-.89.34-1.22 0l-2-2a.857.857 0 0 1 0-1.22c.33-.34.88-.34 1.22 0Z" fill="#F95C5C"/></g><g filter="url(#i)"><path d="m17.02 13.05 2 2c.34.34.34.89 0 1.22-.34.34-.89.34-1.22 0l-2-2a.857.857 0 0 1 0-1.22c.34-.33.88-.33 1.22 0Z" fill="#F95C5C"/></g><g filter="url(#j)"><path d="m19.4 10.68 2 2c.34.34.34.89 0 1.22-.34.34-.89.34-1.22 0l-2-2a.857.857 0 0 1 0-1.22c.33-.34.88-.34 1.22 0Z" fill="#F95C5C"/></g><g filter="url(#k)"><path d="m12.339 17.7 2 2c.34.34.34.89 0 1.22-.34.34-.89.34-1.22 0l-2-2a.857.857 0 0 1 0-1.22c.34-.33.89-.33 1.22 0Z" fill="#FFBCD4"/></g><g filter="url(#l)"><path d="m14.719 15.33 2 2c.34.34.34.89 0 1.22-.34.34-.89.34-1.22 0l-2-2a.857.857 0 0 1 0-1.22c.33-.34.88-.34 1.22 0Z" fill="#FFBCD4"/></g><g filter="url(#m)"><path d="m17.089 12.95 2 2c.34.34.34.89 0 1.22-.34.34-.89.34-1.22 0l-2-2a.857.857 0 0 1 0-1.22c.34-.33.88-.33 1.22 0Z" fill="#FFBCD4"/></g><g filter="url(#n)"><path d="m19.469 10.58 2 2c.34.34.34.89 0 1.22-.34.34-.89.34-1.22 0l-2-2a.857.857 0 0 1 0-1.22c.33-.34.88-.34 1.22 0Z" fill="#FFBCD4"/></g><defs><filter id="a" x="2.099" y="2.078" width="28.241" height="28.238" filterUnits="userSpaceOnUse" color-interpolation-filters="sRGB"><feFlood flood-opacity="0" result="BackgroundImageFix"/><feBlend in="SourceGraphic" in2="BackgroundImageFix" result="shape"/><feColorMatrix in="SourceAlpha" values="0 0 0 0 0 0 0 0 0 0 0 0 0 0 0 0 0 0 127 0" result="hardAlpha"/><feOffset dx=".25" dy=".25"/><feGaussianBlur stdDeviation=".625"/><feComposite in2="hardAlpha" operator="arithmetic" k2="-1" k3="1"/><feColorMatrix values="0 0 0 0 0.843137 0 0 0 0 0.607843 0 0 0 0 0.313726 0 0 0 1 0"/><feBlend in2="shape" result="effect1_innerShadow_18_2315"/></filter><filter id="d" x="3.579" y="3.529" width="24.898" height="25.192" filterUnits="userSpaceOnUse" color-interpolation-filters="sRGB"><feFlood flood-opacity="0" result="BackgroundImageFix"/><feBlend in="SourceGraphic" in2="BackgroundImageFix" result="shape"/><feColorMatrix in="SourceAlpha" values="0 0 0 0 0 0 0 0 0 0 0 0 0 0 0 0 0 0 127 0" result="hardAlpha"/><feOffset dy=".25"/><feGaussianBlur stdDeviation=".2"/><feComposite in2="hardAlpha" operator="arithmetic" k2="-1" k3="1"/><feColorMatrix values="0 0 0 0 0.996078 0 0 0 0 0.458824 0 0 0 0 0.180392 0 0 0 1 0"/><feBlend in2="shape" result="effect1_innerShadow_18_2315"/></filter><filter id="g" x="10.546" y="17.303" width="4.23" height="4.222" filterUnits="userSpaceOnUse" color-interpolation-filters="sRGB"><feFlood flood-opacity="0" result="BackgroundImageFix"/><feBlend in="SourceGraphic" in2="BackgroundImageFix" result="shape"/><feGaussianBlur stdDeviation=".125" result="effect1_foregroundBlur_18_2315"/></filter><filter id="h" x="12.925" y="14.925" width="4.23" height="4.23" filterUnits="userSpaceOnUse" color-interpolation-filters="sRGB"><feFlood flood-opacity="0" result="BackgroundImageFix"/><feBlend in="SourceGraphic" in2="BackgroundImageFix" result="shape"/><feGaussianBlur stdDeviation=".125" result="effect1_foregroundBlur_18_2315"/></filter><filter id="i" x="15.296" y="12.553" width="4.23" height="4.222" filterUnits="userSpaceOnUse" color-interpolation-filters="sRGB"><feFlood flood-opacity="0" result="BackgroundImageFix"/><feBlend in="SourceGraphic" in2="BackgroundImageFix" result="shape"/><feGaussianBlur stdDeviation=".125" result="effect1_foregroundBlur_18_2315"/></filter><filter id="j" x="17.675" y="10.175" width="4.23" height="4.23" filterUnits="userSpaceOnUse" color-interpolation-filters="sRGB"><feFlood flood-opacity="0" result="BackgroundImageFix"/><feBlend in="SourceGraphic" in2="BackgroundImageFix" result="shape"/><feGaussianBlur stdDeviation=".125" result="effect1_foregroundBlur_18_2315"/></filter><filter id="k" x="10.664" y="17.252" width="4.13" height="4.122" filterUnits="userSpaceOnUse" color-interpolation-filters="sRGB"><feFlood flood-opacity="0" result="BackgroundImageFix"/><feBlend in="SourceGraphic" in2="BackgroundImageFix" result="shape"/><feColorMatrix in="SourceAlpha" values="0 0 0 0 0 0 0 0 0 0 0 0 0 0 0 0 0 0 127 0" result="hardAlpha"/><feOffset dx="-.2" dy=".2"/><feGaussianBlur stdDeviation=".2"/><feComposite in2="hardAlpha" operator="arithmetic" k2="-1" k3="1"/><feColorMatrix values="0 0 0 0 1 0 0 0 0 0.815686 0 0 0 0 0.831373 0 0 0 1 0"/><feBlend in2="shape" result="effect1_innerShadow_18_2315"/><feColorMatrix in="SourceAlpha" values="0 0 0 0 0 0 0 0 0 0 0 0 0 0 0 0 0 0 127 0" result="hardAlpha"/><feOffset dx=".2" dy="-.2"/><feGaussianBlur stdDeviation=".2"/><feComposite in2="hardAlpha" operator="arithmetic" k2="-1" k3="1"/><feColorMatrix values="0 0 0 0 0.952941 0 0 0 0 0.45098 0 0 0 0 0.678431 0 0 0 1 0"/><feBlend in2="effect1_innerShadow_18_2315" result="effect2_innerShadow_18_2315"/></filter><filter id="l" x="13.044" y="14.874" width="4.13" height="4.13" filterUnits="userSpaceOnUse" color-interpolation-filters="sRGB"><feFlood flood-opacity="0" result="BackgroundImageFix"/><feBlend in="SourceGraphic" in2="BackgroundImageFix" result="shape"/><feColorMatrix in="SourceAlpha" values="0 0 0 0 0 0 0 0 0 0 0 0 0 0 0 0 0 0 127 0" result="hardAlpha"/><feOffset dx="-.2" dy=".2"/><feGaussianBlur stdDeviation=".2"/><feComposite in2="hardAlpha" operator="arithmetic" k2="-1" k3="1"/><feColorMatrix values="0 0 0 0 1 0 0 0 0 0.815686 0 0 0 0 0.831373 0 0 0 1 0"/><feBlend in2="shape" result="effect1_innerShadow_18_2315"/><feColorMatrix in="SourceAlpha" values="0 0 0 0 0 0 0 0 0 0 0 0 0 0 0 0 0 0 127 0" result="hardAlpha"/><feOffset dx=".2" dy="-.2"/><feGaussianBlur stdDeviation=".2"/><feComposite in2="hardAlpha" operator="arithmetic" k2="-1" k3="1"/><feColorMatrix values="0 0 0 0 0.952941 0 0 0 0 0.45098 0 0 0 0 0.678431 0 0 0 1 0"/><feBlend in2="effect1_innerShadow_18_2315" result="effect2_innerShadow_18_2315"/></filter><filter id="m" x="15.414" y="12.502" width="4.13" height="4.122" filterUnits="userSpaceOnUse" color-interpolation-filters="sRGB"><feFlood flood-opacity="0" result="BackgroundImageFix"/><feBlend in="SourceGraphic" in2="BackgroundImageFix" result="shape"/><feColorMatrix in="SourceAlpha" values="0 0 0 0 0 0 0 0 0 0 0 0 0 0 0 0 0 0 127 0" result="hardAlpha"/><feOffset dx="-.2" dy=".2"/><feGaussianBlur stdDeviation=".2"/><feComposite in2="hardAlpha" operator="arithmetic" k2="-1" k3="1"/><feColorMatrix values="0 0 0 0 1 0 0 0 0 0.815686 0 0 0 0 0.831373 0 0 0 1 0"/><feBlend in2="shape" result="effect1_innerShadow_18_2315"/><feColorMatrix in="SourceAlpha" values="0 0 0 0 0 0 0 0 0 0 0 0 0 0 0 0 0 0 127 0" result="hardAlpha"/><feOffset dx=".2" dy="-.2"/><feGaussianBlur stdDeviation=".2"/><feComposite in2="hardAlpha" operator="arithmetic" k2="-1" k3="1"/><feColorMatrix values="0 0 0 0 0.952941 0 0 0 0 0.45098 0 0 0 0 0.678431 0 0 0 1 0"/><feBlend in2="effect1_innerShadow_18_2315" result="effect2_innerShadow_18_2315"/></filter><filter id="n" x="17.794" y="10.124" width="4.13" height="4.13" filterUnits="userSpaceOnUse" color-interpolation-filters="sRGB"><feFlood flood-opacity="0" result="BackgroundImageFix"/><feBlend in="SourceGraphic" in2="BackgroundImageFix" result="shape"/><feColorMatrix in="SourceAlpha" values="0 0 0 0 0 0 0 0 0 0 0 0 0 0 0 0 0 0 127 0" result="hardAlpha"/><feOffset dx="-.2" dy=".2"/><feGaussianBlur stdDeviation=".2"/><feComposite in2="hardAlpha" operator="arithmetic" k2="-1" k3="1"/><feColorMatrix values="0 0 0 0 1 0 0 0 0 0.815686 0 0 0 0 0.831373 0 0 0 1 0"/><feBlend in2="shape" result="effect1_innerShadow_18_2315"/><feColorMatrix in="SourceAlpha" values="0 0 0 0 0 0 0 0 0 0 0 0 0 0 0 0 0 0 127 0" result="hardAlpha"/><feOffset dx=".2" dy="-.2"/><feGaussianBlur stdDeviation=".2"/><feComposite in2="hardAlpha" operator="arithmetic" k2="-1" k3="1"/><feColorMatrix values="0 0 0 0 0.952941 0 0 0 0 0.45098 0 0 0 0 0.678431 0 0 0 1 0"/><feBlend in2="effect1_innerShadow_18_2315" result="effect2_innerShadow_18_2315"/></filter><radialGradient id="b" cx="0" cy="0" r="1" gradientUnits="userSpaceOnUse" gradientTransform="matrix(-20.74046 20.24684 -13.54784 -13.87814 26.271 7.967)"><stop stop-color="#FFD96B"/><stop offset=".626" stop-color="#F3AA36"/><stop offset="1" stop-color="#E4843C"/></radialGradient><radialGradient id="c" cx="0" cy="0" r="1" gradientUnits="userSpaceOnUse" gradientTransform="matrix(2.7654 21.53063 -27.8528 3.57741 12.642 10.338)"><stop offset=".758" stop-color="#F47490" stop-opacity="0"/><stop offset="1" stop-color="#F47490"/></radialGradient><linearGradient id="e" x1="27.25" y1="5.293" x2="4.235" y2="28.471" gradientUnits="userSpaceOnUse"><stop stop-color="#FF8D58"/><stop offset="1" stop-color="#FF5941"/></linearGradient><linearGradient id="f" x1="4.709" y1="27.985" x2="13.219" y2="21.815" gradientUnits="userSpaceOnUse"><stop stop-color="#F04A54"/><stop offset="1" stop-color="#F04A54" stop-opacity="0"/></linearGradient></defs></svg>
